// Map Tempest drumpads
let padToMidi = {
  A1: 67,  A2: 52,  A3: 41,  A4: 38,
  A5: 46,  A6: 50,  A7: 47,  A8: 43,
  A9: 77,  A10: 39, A11: 37, A12: 36,
  A13: 42, A14: 51, A15: 49, A16: 55,

  B1: 127, B2: 126, B3: 123, B4: 121,
  B5: 120, B6: 125, B7: 118, B8: 122,
  B9: 124, B10: 119, B11: 112, B12: 117,
  B13: 115, B14: 116, B15: 111, B16: 114,
};

// Algorave
stack(
  "A12*4",                        
  "- A10 - A10".early(.01),                   
  "A13*8 ".late(".5"),       
  "[A11@12 - A11 - - -] * 0.5 -",   
   "- A1 - A5 - A1 - A5".late(0.2), 
 "<B5*4>, [B5, B6]*8".swing(2)  
).withValue(x => padToMidi[x])
  .note()
  .midi('Strudel2BW', { midichannel: 12 });
